X: 356
T: A Smile From Sile
R: jig
M: 6/8
K: Dmajor
|:ABA ADD|AFA dAd|efg afe|dcA EFG|
A^GA dAF|ABA EFG|ABA efg|1 ecA dcB:|2 ecA d3||
|:fed ede|faa a^ga|~f2d ecA|BAF EFG|
AFA dAd|faa a^ga|efg efg|1 ecA d2e:|2 ecA d3||

